static/assets/images/exchanges/bitget.svg

<svg width="239" height="256" viewBox="0 0 239 256" fill="none" xmlns="http://www.w3.org/2000/svg">
<path d="M106.745 91.8783H170.472L235.667 156.663C239.917 160.87 239.934 167.731 235.718 171.964L152.1 256H86.453L106.302 236.706L179.176 164.292L107.223 91.8698" fill="#00F0FF"/>
<path d="M132.942 164.13H69.1984L4.00371 99.3451C2.99542 98.3438 2.19442 97.1535 1.64651 95.8423C1.09861 94.5312 0.814552 93.1248 0.810589 91.7038C0.806626 90.2828 1.08284 88.8749 1.62342 87.5607C2.164 86.2465 2.95835 85.0518 3.96105 84.0448L87.5792 0H153.226L133.378 19.2939L60.5029 91.7078L132.456 164.13" fill="#00F0FF"/>
</svg>

<svg xmlns="http://www.w3.org/2000/svg" fill="none" viewBox="0 0 239 256"><path fill="#00F0FF" d="M106.745 91.878h63.727l65.195 64.785c4.25 4.207 4.267 11.068.051 15.301L152.1 256H86.453l19.849-19.294 72.874-72.414-71.953-72.422"/><path fill="#00F0FF" d="M132.942 164.13H69.198L4.004 99.345a10.81 10.81 0 0 1-.043-15.3L87.579 0h65.647l-19.848 19.294-72.875 72.414 71.953 72.422"/></svg>
